X: 27953
T: Mourne Mountains, The
R: reel
M: 4/4
K: Gmajor
BGGA GEDG|~E3G AEGE|DEGA B2Bd|ed~d2(3Bcd gd|
BG~G2{A}GEDG|~E3G AEGE|DEGA B2Bd|egdc BG~G2:|
|:dgga gedg|eaag adga|bg~g2 ageg|gedc BGBd|
~g3a gedg|eaag a2ga|bg~g2 ageg|1 gedc BG~G2:|2 gedc BGdc||

